X:23602
T:Wren, The
R:An Dro
C:Trad.
O:France, via USA
Z:Paul Hardy's Annex Tunebook 2015 (see www.paulhardy.net). Creative Commons cc by-nc-sa licenced.
M:4/4
L:1/8
Q:1/4=140
K:Bm
"Bm"B2f2f2 ef|"Em"g2e2 edcd|"A"eAce efed|"F#m"c2c2 dcBA|
"Bm"B2f2f2 ef|"Em"g2e2 edcd|"A"eAce efed|"Bm"c2B2 B2A2:|
|:"Bm"B3A Bcdc|B2 B2 c2d2|"A"eAce efed|"F#m"c2 c2 dcBA|
"Bm"B3A Bcdc|B2 B2 c2d2|"A"eAce efed|"Bm"c2B2B2A2:|
%%newpage
%%vskip 1cm
%%textfont * 24
%%center Modified from Session Tunebook 2015
%%vskip 1cm

